!!!COM:	la Rue, Pierre de
!!!CDT:	~1452///-1518/11/20
!!!OPR:	Missa Pro fidelibus defunctis
!!!ONM:	1
!!!OTL:	Introit
!!!AGN:	Mass; Introit
!!!SCT:	Rue1024a
!!!SCA:	Rue1024a
!!!voices-OPR:	4
!!!voices:	4
**kern	**kern	**kern	**kern
*Ivox	*Ivox	*Ivox	*Ivox
*I"Bassus	*I"Tenor	*I"Contra	*I"Discantus
*I'B	*I'T	*I'C	*I'D
*staff4	*staff3	*staff2	*staff1
*>[A,B,A]	*>[A,B,A]	*>[A,B,A]	*>[A,B,A]
*>A	*>A	*>A	*>A
*clefF4	*clefF4	*clefF4	*clefGv2
*k[b-e-]	*k[b-e-]	*k[b-e-]	*k[b-e-]
*M2/1	*M2/1	*M2/1	*M2/1
*met(C|)	*met(C|)	*met(C|)	*met(C|)
!!section: Eternam dona eis
!!!OMD: Eternam dona eis
=1-	=1-	=1-	=1-
0r	1r	0F	0r
.	[1BB-	.	.
=2	=2	=2	=2
0r	1BB-]	1G	0r
.	1C	[1A	.
=3	=3	=3	=3
1r	1.D	2A\]	0r
.	.	2F\	.
[1BB-	.	[1F	.
.	2BB-/	.	.
=4	=4	=4	=4
2BB-/]	0BB-	1F]	0r
2GG/	.	.	.
1GG	.	[1B-	.
=5	=5	=5	=5
0FF	0C	2B-\]	0c
.	.	2A\	.
.	.	1A	.
=6	=6	=6	=6
1r	0BB-	0B-	1d
[1BB-	.	.	1d
=7	=7	=7	=7
1BB-]	1r	1r	1d
[1BB-	1D	[1B-	[1f
=8	=8	=8	=8
1BB-]	1D	1B-]	2f\]
.	.	.	2e-\
1BB-	[1F	1B-	1d
=9	=9	=9	=9
1FF	2F\]	1A	2d\
.	2E-\	.	1c
1GG	1D	[1G	.
.	.	.	2B-\
=10	=10	=10	=10
2CC/	1.C	2G\]	2c\
1FF	.	1F	1A
2GG/	2BB-/	2D\	[2G/
=11	=11	=11	=11
1AA	1C	1C	2G/]
.	.	.	2F#i/
1GG	1D	1BB-	1G
=12	=12	=12	=12
1r	1.E-	1C	1r
[1GG	.	[1BB-	[1G
.	[2D\	.	.
=13	=13	=13	=13
1GG]	2D\]	2BB-/]	1G]
.	1C	2C/	.
1GG	.	1D	1G
.	2BB-/	.	.
=14	=14	=14	=14
0CC	0C	0E-	0G
=15	=15	=15	=15
0GG	0BB-	1r	1r
.	.	1D	1B-
=16	=16	=16	=16
0r	0r	1D	1B-
.	.	1C	1A
=17	=17	=17	=17
0r	0r	1D	1B-
.	.	1C	1c
=18	=18	=18	=18
1r	1r	0BB-	0d
1BB-	1D	.	.
=19	=19	=19	=19
1BB-	1D	0r	0r
1AA	1C	.	.
=20	=20	=20	=20
1BB-	1D	1r	0r
1C	1C	1E-	.
=21	=21	=21	=21
*	*	*	*M3/3%2
*	*	*	*met(3)
0D	0BB-	1F	3%4d
.	.	1G	.
.	.	.	3%2d
=22	=22	=22	=22
*M3/3%2	*	*	*
*met(3)	*	*	*
3%4BB-	0D	1F	3%2.f
.	.	1B-	3e-\
3%2BB-	.	.	3%2d
=23	=23	=23	=23
*	*	*M3/3%2	*
*	*	*met(3)	*
3%2FF	0F	3%2A	3%2c
3%2.BB-	.	3%2.B-	3%2.d
3FF/	.	3A\	3c\
=24	=24	=24	=24
3%2C	1E-	3%2.G	3%4c
3%4GG	.	.	.
.	1D	3F\	.
.	.	3%2D	3%2B-
=25	=25	=25	=25
*M2/1	*	*	*M2/1
*met(C|)	*	*	*met(C|)
!!primary-mensuration: met(C|)
1EE-	0C	3%2E-	2c\
.	.	.	2G/
.	.	3%2r	.
1FF	.	.	1A
.	.	3%2r	.
=26	=26	=26	=26
*	*M3/3%2	*	*
*	*met(3)	*	*
0EE-	3%4E-	3%4BB-	0G
.	3%2E-	3%2C	.
=27	=27	=27	=27
1r	3%2.D	3%2BB-	1r
.	.	3%2D	.
1EE-	3BB-/	.	[1G
.	3%2C	[3%2E-	.
=28	=28	=28	=28
0EE-	3%2BB-	3E-\]	1G]
.	.	3F\	.
.	3%4E-	3%4G	.
.	.	.	1G
=29	=29	=29	=29
*	*M2/1	*M2/1	*
*	*met(C|)	*met(C|)	*
1FF	1.D	1F	1A
1GG	.	1r	1B-
.	4C/	.	.
.	4BB-/	.	.
=30	=30	=30	=30
1FF	1AA	1.F	1c
2r	1BB-	.	2d\
[2GG/	.	[2D\	[2B-\
=31	=31	=31	=31
2GG/]	1BB-	2D\]	2B-\]
1EE-	.	1G	1e-
.	2C/	.	.
2FF/	2D\	2F\	[2d\
=32	=32	=32	=32
2GG/	1E-	2B-\	2d\]
2AA/	.	2A\	2c\
1BB-	1D	2G\	1d
.	.	2F\	.
=33	=33	=33	=33
[0FF	[0C	0F	2r
.	.	.	1f
.	.	.	2e-\
=34	=34	=34	=34
0FF]	0C_	2r	1c
.	.	1F	.
.	.	.	2r
.	.	2F\	[2f\
=35	=35	=35	=35
1FF	0C_	1C	2f\]
.	.	.	2e-\
[1EE-	.	2.E-\	2c\
.	.	.	[2e-\
.	.	4F\	.
=36	=36	=36	=36
2EE-/]	0C]	2G\	2e-\]
1.FF	.	2F\	1d
.	.	1A-	.
.	.	.	[2c\
=37	=37	=37	=37
1EE-	0C	1G	2c\]
.	.	.	1B-
1FF	.	[1F	.
.	.	.	2A/
=38	=38	=38	=38
0BBB-l	0BB-l	1F]	0B-l
.	.	1Fl	.
!!LO:LB:i:g=z
=39||	=39||	=39||	=39||
*>B	*>B	*>B	*>B
*clefF4	*clefF4	*clefF4	*clefGv2
*k[b-e-]	*k[b-e-]	*k[b-e-]	*k[b-e-]
*M2/1	*M2/1	*M2/1	*M2/1
*met(C|)	*met(C|)	*met(C|)	*met(C|)
!!section: Et tibi reddetur
!!!OMD: Et tibi reddetur
[0GG	[0BB-	0D	0B-
=40	=40	=40	=40
1GG]	1BB-]	1E-	1B-
1FF	1C	[1F	[1A
=41	=41	=41	=41
0DD	0D	1F]	1A]
.	.	1F	1A
=42	=42	=42	=42
1DD	1D	1F	1A
1DD	1D	[1F	[1A
=43	=43	=43	=43
0DD	0D	1F]	1A]
.	.	1F	[1d
=44	=44	=44	=44
1r	1r	[0F	2d\]
.	.	.	2c\
1DD	1D	.	[1f
=45	=45	=45	=45
0DD	[0D	0F]	2f\]
.	.	.	2e-\
.	.	.	2d\
.	.	.	2c\
=46	=46	=46	=46
1r	0D_	1r	1.B-
[1DD	.	1F	.
.	.	.	[2A/
=47	=47	=47	=47
1DD]	0D]	2F\	2A/]
.	.	1A	2F/
1EE-	.	.	1G
.	.	[2G\	.
=48	=48	=48	=48
0DD	1r	2G\]	0A
.	.	4F#i\	.
.	.	4Eni\	.
.	1D	1F#i	.
=49	=49	=49	=49
0GG	1.E-	1G	0G
.	.	[1GG	.
.	[2D\	.	.
=50	=50	=50	=50
0EE-	2D\]	0GG]	1.G
.	2BB-/	.	.
.	1C	.	.
.	.	.	2F/
=51	=51	=51	=51
1DD	[0Dl	1AA	[0Fl
1BBB-	.	1BB-	.
=52	=52	=52	=52
0DDl	0D]	0AAl	0F]
=53	=53	=53	=53
0EE-	0BB-	0GG	0G
=54	=54	=54	=54
0EE-	0C	0GG	0G
=55	=55	=55	=55
1DD	[0D	1AA	1F
2r	.	1BB-	2r
2BBB-/	.	.	2F/
=56	=56	=56	=56
1BBB-	0D]	1.BB-	1B-
1BBB-	.	.	1B-
.	.	2BB-/	.
=57	=57	=57	=57
1BBB-	2r	0F	1B-
.	2D\	.	.
1BBB-	1D	.	1B-
=58	=58	=58	=58
*M3/1	*	*	*M3/1
*met(3)	*	*	*met(3)
3%2.DD	1D	0F	3%4A
3EE-/	1D	.	.
3%2FF	.	.	3%2A
=59	=59	=59	=59
*	*M3/3%2	*M3/3%2	*
*	*met(3)	*met(3)	*
3%4.GG	3%2.BB-	3%4D	3%2B-
.	.	.	3%2.d
.	3C/	.	.
.	3%2D	[3%2G	.
.	.	.	3c\
=60	=60	=60	=60
3%2r	3%2E-	3%4.G]	3%2.c
3%4GG	3%4D	.	.
.	.	.	3Bni\
.	.	.	3%2Bni
=61	=61	=61	=61
*	*	*	*M2/1
*	*	*	*met(C|)
3%4AA-	3%4C	3%4E-	1c
.	.	.	1A
3%2FF	3%2r	3%2F	.
=62	=62	=62	=62
[3%4.FF	3%2C	3%4F	1A
.	3%2C	.	.
.	.	.	1A
.	3%2C	[3%2F	.
=63	=63	=63	=63
3%2FF]	3%2C	3%2F]	1A
3%4FF	3%4C	3%4F	.
.	.	.	1A
=64	=64	=64	=64
*M2/1	*	*M2/1	*
*met(C|)	*	*met(C|)	*
1EE-	3%2.E-	1BB-	1G
1FF	3D\	1F	1A
.	3%2C	.	.
=65	=65	=65	=65
*	*	*	*M3/3%2
*	*	*	*met(3)
0GG	3%2BB-	1E-	3%2.B-
.	3%2C	.	.
.	.	[1G	3A/
.	3%2D	.	3%2B-
=66	=66	=66	=66
1EE-	3%2E-	1G]	3%2c
.	3%4C	.	3%2.A
1FF	.	1F	.
.	.	.	3G/
=67	=67	=67	=67
0BBB-	3%4.BB-	0D	3%4.B-
!!LO:TX:i:Y=48:rj:t=[Requiem ut supra]
=||	=||	=||	=||
*-	*-	*-	*-
!!!RDF**kern: l=long note in original notation
!!!RDF**kern: i=editorial accidental
!!!ENC:	Chris Gage 04-23-2013
!!!END:	2013/08/01/
!!!EED:	Jesse Rodin
!!!EEV:	2013/08/02/
!!!ONB:	Translated from MusicXML and edited on 2013/08/02/ by Craig Sapp
!!muse2ps: T^@{OPR}^u^@{ONM}{. }@{OTL}^C^@{COM}^i2I150v85,85,85,150Q16
